packages/assets/static/images/icons/waves.svg

<svg width="24" height="24" viewBox="0 0 24 24" xmlns="http://www.w3.org/2000/svg">
<path d="M21.1232 16.3821C21.3134 16.6117 21.4047 16.9075 21.3769 17.2044C21.3491 17.5014 21.2046 17.7751 20.9751 17.9655C19.2716 19.3792 17.7313 19.8752 16.3335 19.8752C14.481 19.8752 12.8779 19.0042 11.4698 18.2402C9.1204 16.9633 7.26415 15.9555 4.47508 18.2683C4.24534 18.4588 3.94935 18.5502 3.65222 18.5224C3.35509 18.4946 3.08117 18.3499 2.89071 18.1202C2.70025 17.8904 2.60886 17.5944 2.63664 17.2973C2.66441 17.0002 2.80909 16.7263 3.03883 16.5358C6.99977 13.2546 10.0701 14.9205 12.5441 16.2621C14.8935 17.538 16.7498 18.5467 19.5388 16.2339C19.6526 16.1396 19.7838 16.0686 19.925 16.025C20.0662 15.9814 20.2146 15.966 20.3617 15.9798C20.5088 15.9935 20.6518 16.0361 20.7825 16.1052C20.9131 16.1742 21.0289 16.2683 21.1232 16.3821ZM19.5388 10.983C16.7498 13.2958 14.8935 12.2871 12.5441 11.0111C10.0738 9.67049 6.99977 8.00081 3.03883 11.2849C2.80909 11.4753 2.66441 11.7492 2.63664 12.0464C2.62288 12.1935 2.63824 12.3419 2.68183 12.4831C2.72543 12.6243 2.7964 12.7555 2.89071 12.8692C2.98501 12.983 3.1008 13.0771 3.23146 13.1461C3.36212 13.2151 3.50509 13.2577 3.65222 13.2714C3.94935 13.2992 4.24534 13.2078 4.47508 13.0174C7.26415 10.7046 9.1204 11.7124 11.4698 12.9892C12.876 13.7533 14.481 14.6242 16.3335 14.6242C17.7313 14.6242 19.2716 14.1283 20.9751 12.7155C21.2048 12.525 21.3495 12.2511 21.3773 11.954C21.4051 11.6569 21.3137 11.3609 21.1232 11.1311C20.9328 10.9014 20.6588 10.7567 20.3617 10.7289C20.0646 10.7011 19.7686 10.7925 19.5388 10.983ZM4.47508 7.76643C7.26415 5.45362 9.1204 6.46143 11.4698 7.73831C12.876 8.50237 14.481 9.37331 16.3335 9.37331C17.7313 9.37331 19.2716 8.87737 20.9751 7.46456C21.2048 7.2741 21.3495 7.00017 21.3773 6.70305C21.4051 6.40592 21.3137 6.10992 21.1232 5.88018C20.9328 5.65044 20.6588 5.50576 20.3617 5.47798C20.0646 5.4502 19.7686 5.5416 19.5388 5.73206C16.7498 8.04487 14.8935 7.03706 12.5441 5.76018C10.0738 4.41956 6.99977 2.74987 3.03883 6.03487C2.92236 6.12828 2.82565 6.24393 2.75433 6.37509C2.68301 6.50626 2.63852 6.6503 2.62343 6.79884C2.60835 6.94737 2.62298 7.09742 2.66648 7.24025C2.70997 7.38307 2.78146 7.51581 2.87678 7.63072C2.97209 7.74563 3.08933 7.84042 3.22165 7.90957C3.35397 7.97872 3.49873 8.02083 3.64749 8.03346C3.79626 8.04609 3.94605 8.02899 4.08813 7.98314C4.23022 7.9373 4.36176 7.86363 4.47508 7.76643Z"/>
</svg>

<svg viewBox="0 0 24 24" xmlns="http://www.w3.org/2000/svg" aria-hidden="true" fill="currentColor" height="24px" width="24px"><path d="M21.123 16.382a1.125 1.125 0 0 1-.148 1.583c-1.703 1.414-3.244 1.91-4.642 1.91-1.852 0-3.455-.87-4.863-1.635-2.35-1.277-4.206-2.284-6.995.028a1.125 1.125 0 1 1-1.436-1.732c3.96-3.281 7.031-1.616 9.505-.274 2.35 1.276 4.206 2.285 6.995-.028a1.126 1.126 0 0 1 1.584.148m-1.584-5.399c-2.79 2.313-4.646 1.304-6.995.028-2.47-1.34-5.544-3.01-9.505.274a1.125 1.125 0 1 0 1.436 1.732c2.79-2.312 4.645-1.305 6.995-.028 1.406.764 3.011 1.635 4.864 1.635 1.397 0 2.938-.496 4.641-1.908a1.126 1.126 0 0 0-1.436-1.733M4.475 7.766c2.79-2.312 4.645-1.305 6.995-.028 1.406.764 3.011 1.635 4.864 1.635 1.397 0 2.938-.496 4.641-1.908a1.125 1.125 0 0 0-1.436-1.733c-2.79 2.313-4.646 1.305-6.995.028C10.074 4.42 7 2.75 3.04 6.035a1.125 1.125 0 1 0 1.436 1.731"/></svg>
